!!!COM: Ernest Chausson
!!!CNT: Francais
!!!TXO: Francais
!!!OTL: Chanson d'Ophelie
!!!LYR: Maurice Bouchor
!!!ENC: Jacob Pegg
!!!YOR: 20 Songs for Voice and Piano, International Music Company, New York City, January, 1952
!!!ODT: 1896/
!!NB: Vocal melody and text only encoded.
**kern	**silbe
*clef G2	*
*k[b-]	*
*M6/8	*
=1	=1
4.r	.
8r	.
{8d	{Il
8d	est
=2	=2
4e	mort
8e	ay-
8e-	-ant
8f	bien
8g	souf-
=3	=3
4a	-fert,
8e	Ma-
4e	-da-
8e}	-me;}
=4	=4
4r	.
8r	.
8r	.
16r	.
{16d	{Il
16d	est
16d	par-
=5	=5
4g	-ti;
16r	.
16B-	c'est
16B-	u-
16B-	-ne
8.B-	cho-
16d	-se
=6	=6
4d	fai-
8d}	-te.}
4r	.
8r	.
=7	=7
16r	.
{16f	{U-
16f	-ne
16f	pierre
16f	a\
16f	ses
4g	pieds
[8g	et
=8	=8
8g]	|
16g	pour
16g	po-
16g	-ser
16b-	sa
4b-	te^-
8e-}	-te,}
=9	=9
*M4/8	*
8r	.
{8en	{Un
8b-	ter-
8a	-re
=10	=10
[2a	vert.
=11	=11
4.a]}	|}
8r	.
=12	=12
*M6/8	*
16r	.
{16a	{Sur
16a	le
16a	lin-
16b-	-ceul
16a	de
[4a	neige
16a]	|
16e	a\
=13	=13
16d	plei-
16d	-nes
8d	mains
8d	se-
4f}	-me/es,}
{16f	{Mil-
16f	-le
=14	=14
8.g	fleurs
8a	par-
16b-	-fu-
4g	-me/es,
8g	A-
=15	=15
16a-	-vant
16a-	d'al-
16g	-ler
16g	sous
16f	terre
32f	a-
32f	-vec
8.e-	lui
8e-	sans
16d	re-
=16	=16
4d}	-tour}
8r	.
{8g	{Dans
8an	leur
8b-	jeu-
=17	=17
8.a	-nesse
16a	e/-
16g	-pa-
16f	-nou-
4b-	-ie
8dd	ont
=18	=18
4.dd}	bu,}
{8a	{comme
16a	u-
16a	-ne
16a	frai^-
16a	-che
=19	=19
[4.b-	pluie
4b-]	|
8b-	Les
=20	=20
8.a	lar-
16a	-mes
16g	du
16f	sin-
4e-	-ce\re
8d	a-
=21	=21
[4.d	-mour.
8d]}	|}
8r	.
8r	.
*-	*-
